!!!COM: Scriabin, Alexander
!!!OTL@@FR: Prélude en fa majeur
!!!OTL@@EN: Prelude in F Major
!!!OPR@@FR: 3 Morceaux
!!!OPR@@EN: 3 Pieces
!!!OPS: 49
!!!ONM: 2
!!!ODT: 1905
!!!AGN: Prelude
**kern	**kern	**dynam
*staff2	*staff1	*staff1/2
*Ipiano	*Ipiano	*
*clefF4	*clefG2	*
*k[b-]	*k[b-]	*
*F:	*F:	*
*M3/4	*M3/4	*
8AA-X 8G-X	24cLL	f <
.	24d-X	(
.	24dnJJ	(
=1	=1	=1
4FF 4AAn 4E-X 4Gn	4e-X 4cc-X	[
.	8qE-X	.
*	*^	*
*	*	*^	*
!	!	! The print edition has an arrow indicating voice overlap from the bass	!	!
2FFF 2FF	4..G\	2c-X	4.e-	.
.	.	.	8e-	.
.	16G\	.	.	.
*	*	*v	*v	*
*	*v	*v	*
=2	=2	=2
*^	*	*
[8qDDD-X [8qDD-X\	.	.	.
2DDD-] 2DD-]	12C-XL 12c-X	2G 2e-X 2g	.
.	12C- 12c-	.	.
.	[12C-J [12c-	.	.
.	4C-] 4c-]	.	.
*v	*v	*	*
8r	8r	.
8D-X 8c-	24fLL	<
.	24g-X	(
.	24gnJJ	(
=3	=3	=3
4BB- 4Dn 4A-X 4cn	4a-X 4ff-X	[
.	8qA-X	.
*	*^	*
*	*	*^	*
!	!	! The print edition has an arrow indicating voice overlap from the bass	!	!
2BBB- 2BB-	4..c\	2f-X	4.a-	.
.	.	.	8a-	.
.	16c\	.	.	.
*	*	*v	*v	*
*	*v	*v	*
!!LO:LB:g=original
=4	=4	=4
*^	*	*
[8qGGG-X [8qGG-X\	.	.	.
2GGG-] 2GG-]	12F-XL 12f-X	2c 2a-X 2cc	.
.	12F- 12f-	.	.
.	[12F-J [12f-	.	.
.	4F-] 4f-]	.	.
4r	8r	8r	.
.	8E-X 8e-X	24b-LL	.
.	.	24bn	<
.	.	24ccJJ	(
=5	=5	=5	=5
[8qGGG-X [8qGG-X\	.	.	(
2GGG-] 2GG-]	2E-- 2A-X 2c 2e--	2a-X 2cc 2aa-X	[
*v	*v	*	*
4GG- 4E-- 4A-/	4e-- 4a- 4cc	.
=6	=6	=6
*^	*	*
[8qFFF [8qFF\	.	.	.
4FFF] 4FF]	4D-X 4A-X 4d-X	4f 4a-X 4cc 4ff	.
*v	*v	*	*
4FF 4D- 4A-	4c 4d-X 4f 4a-	.
4r	4r	.
=7	=7	=7
*^	*	*
[8qGGG [8qGG\	.	.	.
4GGG] 4GG]	4F 4Bn	4d-X 4f 4dd-X	.
*v	*v	*	*
4GG 4F	4Bn 4d- 4f	.
4r	4r	.
!!LO:LB:g=original
=8	=8	=8
4CC 4E	4A-X 4c 4e 4a-X	.
4CCC 4CC	4E 4G 4c	.
8r	8r	.
8D-X 8c-X	24fLL	<
.	24g-X	(
.	24gnJJ	(
=9	=9	=9
4BB- 4Dn 4A-X 4cn	4a-X 4ff-X	[
.	8qA-X	.
*	*^	*
*	*	*^	*
!	!	! The print edition has an arrow indicating voice overlap from the bass	!	!
2BBB- 2BB-	4..c\	2f-X	4.a-	.
.	.	.	8a-	.
.	16c\	.	.	.
*	*	*v	*v	*
*	*v	*v	*
=10	=10	=10
*^	*	*
[8qGGG-X [8qGG-X\	.	.	.
2GGG-] 2GG-]	12F-XL 12f-X	2c 2a-X 2cc	.
.	12F- 12f-	.	.
.	[12F-J [12f-	.	.
.	4F-] 4f-]	.	.
*v	*v	*	*
8r	8r	.
8G-X 8f-X	24b-LL	<
.	24bn	(
.	24ccJJ	(
=11	=11	=11
4E-X 4Gn 4d-X 4fn	4dd-X 4bb--	[
.	8qd-X	.
*	*^	*
*	*	*^	*
!	!	! The print edition has an arrow indicating voice overlap from the bass	!	!
2EE-X 2E-	4..f\	2b--	4.dd-	.
.	.	.	8dd-	.
.	16f\	.	.	.
*	*	*v	*v	*
*	*v	*v	*
!!LO:LB:g=original
=12	=12	=12
*^	*	*
[8qCC-X [8qC-X\	.	.	.
2CC-] 2C-]	12B--L 12b--	2f 2dd-X 2ff	.
.	12B-- 12b--	.	.
.	[12B--J [12b--	.	.
.	4B--] 4b--]	.	.
4r	8r	8r	.
.	8A-X 8a-X	24ee-XLL	.
.	.	24een	<
.	.	24ffJJ	(
=13	=13	=13	=13
[8qCC-X [8qC-X\	.	.	(
2CC-] 2C-]	2A-- 2d-X 2f 2a--	2dd-X 2ff 2ddd-X	[
*v	*v	*	*
4C- 4A-- 4d-	4a-- 4dd- 4ff	.
=14	=14	=14
*^	*	*
[8qBBB- [8qBB-\	.	.	.
4BBB-] 4BB-]	4G-X 4d-X 4g-X	4b- 4dd-X 4ff 4bb-	.
*v	*v	*	*
4BB- 4G- 4d-	4f 4g-X 4b- 4dd-	.
4r	4r	.
=15	=15	=15
2.r	2.r	.
=16	=16	=16
2C-X 2A--	2d-X 2f 2dd-X	.
4CC-X 4C-	4A-- 4d- 4f	.
!!LO:LB:g=original
=17	=17	=17
4BB- 4G-X	4d-X 4f 4b-	.
4BBB- 4BB-	4F 4G-X 4d-	.
4r	4r	.
=18	=18	=18
2.r	2.r	.
*	*clefF4	*
=19	=19	=19
4CC 4E	4G-X 4B- 4g-X	.
4CCC 4CC	4E 4G- 4B-	.
4r	4r	.
=20	=20	=20
2.r	2.r	.
=21	=21	=21
8FFF 8FF	[2.D-X [2.F [2.A [2.d-X	.
4FFF 4FF	.	.
4FFF 4FF	.	.
[8FFF [8FF	.	.
=22	=22	=22
8FFFL] 8FF]	2.D-] 2.F] 2.A] 2.d-]	.
[8FFFJ [8FF	.	.
12FFFL] 12FF]	.	.
12FFF 12FF	.	.
12FFFJ 12FF	.	.
6FFF 6FF	.	.
12FFF 12FF	.	.
=23	=23	=23
4FFF 4FF	4AA 4C 4F	.
4r	4r	.
4r	4r	.
==	==	==
*-	*-	*-
!!!system-decoration: {(*)}
!!!filter: flipper -a
!!!ENC: Bryan Jacob Bell
!!!END: November 2021 to April 2022
!!!PED: Günter Philipp
!!!PTL: Ausgewählte Klavierwerke (Edition Peters)
